X: 472
%
U:~=!turn!
T: Mrs. General Campbell's Reel
C:
O:Scotland
B:Keith Norman MacDonald : "The Skye collection of the best reels & strathspeys extant" : 1887
Z:Ralph Palmer
R:Reel
M:C
L:1/8
K:Am
e | Tc>A A/2A/2A EAAc | BGdB gded | Tc>A A/2A/2A EAAc | BGgB A/2A/2A A :|
^g | ~(aga)!wedge!b abae | gbeg BGdB | ~(aga)!wedge!b abae | degB A/2A/2A A^g |
abga egdg | Bgdg BGdB | cAdB dega | geg>B A/2A/2A A |]


